X: 532
T: Li bu kai
%%abc-version 2.0
%%abcx-abcm2ps-target-version 5.9.1 (29 Sep 2008)
%%abc-creator hum2abc beta
%%abcx-conversion-date 2013/10/02 07:52:30
%%abc-edited-by Helmut Schaffrath
%%humdrum-veritas 3099837167
%%humdrum-veritas-data 1227480576
%%continueall 1
%%barnumbers 0
L: 1/8
M: 2/4
K: G
d eA2 [I:setbarnb 1]| 
d eA2 | 
d B/ d/ e g | 
A GE2 | 
A A/ B/d2 | 
E DC2 | 
E C E/ D/ C/ E/ | 
D4 |]  



